X:1
T:Morn of Gladness, 76.76 D refrain
T:Arthur Cottman, 1877
T:Morn of Gladness, 76.76 D refrain
T:Public Domain
C:Arthur Cottman, 1877
Z:Public Domain
%%score ( 1 2 ) ( 3 4 )
L:1/8
M:4/4
K:G
V:1 treble 
V:2 treble 
V:3 bass 
V:4 bass 
V:1
 D2 | [DG]2 [DF]2 [DA]2 [DG]2 | [Gc]4 [GB]2 [FB]2 | [EB]2 [EA]2 [EA]2 [^CG]2 | [DF]6 [CD]2 | %5
 [B,G]2 [DF]2 [FA]2 G2 | [Gc]4 [GB]2 [FA]2 | [Gd]2 [Ac]2 [GA]2 [FA]2 | G6 [GB]2 | %9
 [GB]3 [GB] [FA]2 [FB]2 | [EG]3 [^DF] E2 [GB]2 | [GB]2 [FA]2 [EG]2 [^DF]2 | [EG]6 [GB]2 | %13
 [GA]2 [G^c]2 [Gd]2 [Ge]2 | [Ff]4 [Gd]2 [=FB]2 | [FA]2 [Bd]2 [Ad]2 [G^c]2 | F4 G2 A2 || %17
"^Refrain" [Gd]2 [GB]2 [FA]3 [FB] | [FA]4 G2 G2 | [EA]2 [^GB]2 [Ec]2 [Ae]2 | A2 F2 G2 [Ad]2 | %21
 [Gd]3 [Gd] [Fc]2 [GB]2 | [EB]3 [EA] [EA]2 E2 | D2 E2 D2 [CF]2 | [B,G]6 |] %25
V:2
 D2 | x8 | x8 | x8 | x8 | x6 G2 | x8 | x8 | G6 x2 | x8 | x4 E2 x2 | x8 | x8 | x8 | x8 | x8 | d8 || %17
 x8 | x4 G2 G2 | x8 | d6 x2 | x8 | x6 E2 | G6 x2 | x6 |] %25
V:3
 D,2 | [G,B,]2 [G,A,]2 [G,C]2 [G,B,]2 | [G,E]4 [G,D]2 [G,D]2 | [C,D]2 [C,C]2 [^C,A,]2 [A,,A,]2 | %4
 [D,A,]6 [F,A,]2 | [G,B,]2 [G,A,]2 [G,C]2 [=F,B,]2 | [E,C]4 [D,D]2 [C,D]2 | %7
 [B,,D]2 [C,E]2 [D,D]2 [D,C]2 | [G,B,]6 [E,B,]2 | [E,B,]3 [E,B,] [^D,B,]2 [D,B,]2 | %10
 B,3 A, [E,G,]2 [E,B,]2 | [A,,C]2 [A,,C]2 [B,,B,]2 [B,,B,]2 | [E,B,]6 [D,E]2 | %13
 [^C,E]2 [A,,A,]2 [A,,B,]2 [A,,^C]2 | D2 A,2 [G,B,]2 [^G,D]2 | [A,D]2 [A,G]2 [A,F]2 [A,E]2 | %16
 D2 A,2 B,2 C2 || [G,B,]2 [G,D]2 [D,C]3 [D,D] | [^D,C]4 [E,B,]2 [E,B,]2 | %19
 C2 [B,D]2 [A,=C]2 [G,^C]2 | F,2 D,2 E,2 [F,C]2 | [G,B,]3 [G,,B,] [A,,C]2 [B,,D]2 | %22
 [C,D]3 [C,C] [C,C]2 [C,A,]2 | B,2 C2 B,2 A,2 | [G,,G,]6 |] %25
V:4
 D,2 | x8 | x8 | x8 | x8 | x8 | x8 | x8 | x8 | x8 | E,4 x4 | x8 | x8 | x8 | D,4 x4 | x8 | D,8 || %17
 x8 | x8 | ^C2 x6 | D6 x2 | x8 | x8 | D,4 D,4 | x6 |] %25

